X: 1
T: Wei\ssenberger Bayrisch  [F]
R: zwiefache
O: Bayrischer Wald
M: 2/4
L: 1/8
K: F
C2 \
| "F"[A2F2][AF]C | [A2F2][AF]C \
|[M:3/4][L:1/8] [A2F2] [AF][GE] [AF][BG] | "C7"[G4E4] [GE][AF] \
|[M:2/4][L:1/8] [B2G2][BG]C | [B2G2][BG]C \
|[M:3/4][L:1/8] [B2G2] [BG][AF] [BG][cA] | "F"[A4F4] :|
|: [c2A2] \
|[M:2/4][L:1/8] "Bb"[d2B2][c2A2] | [B4F4] | "F"[c2A2] [B2G2] | [A4F4] \
|[M:3/4][L:1/8] "C7"[G3E3] [AF] [B2G2] \
|1 "F"[AF][GE] [AF][BG] :|2 "F"[A4F4] |]
